svg/visual-basic.svg

<svg viewBox="0 0 20 20" xmlns="http://www.w3.org/2000/svg">
<rect width="100%" height="100%" fill="#2D4C91"/>
<path d="M0 20V0L20 20H0Z" fill="#425D9C"/>
<path d="M10.5075 5.03953L6.86145 15H5.56768L2 5.03953H3.29377L6.03814 12.9447C6.11655 13.2213 6.19496 13.5375 6.23417 13.8142H6.27338C6.31258 13.498 6.39099 13.2213 6.50861 12.9051L9.29218 5L10.5075 5.03953ZM11.9189 15V5.03953H14.7417C15.4866 5 16.1923 5.23715 16.7804 5.67194C17.2901 6.06719 17.5645 6.69961 17.5253 7.33202C17.5253 7.84585 17.3685 8.35968 17.0548 8.79447C16.7412 9.22925 16.3099 9.54546 15.8003 9.66403V9.70356C16.3883 9.74308 16.9764 10.0198 17.4077 10.4545C17.7997 10.9289 18.035 11.5217 17.9958 12.1146C18.035 12.9051 17.6821 13.6561 17.094 14.17C16.4667 14.7233 15.6434 15 14.8201 14.9605H11.9189V15ZM13.0951 6.10672V9.3083H14.2713C14.8201 9.34783 15.3298 9.1502 15.7611 8.83399C16.1139 8.51779 16.3491 8.04348 16.3099 7.52964C16.3099 6.58103 15.6826 6.06719 14.4281 6.06719L13.0951 6.10672ZM13.0951 10.336V13.9328H14.6633C15.2122 13.9723 15.8003 13.7747 16.2315 13.4585C16.6236 13.1423 16.8196 12.6285 16.7804 12.1146C16.7804 10.9289 15.9963 10.336 14.3889 10.336H13.0951Z" fill="white"/>
</svg>

<svg xmlns="http://www.w3.org/2000/svg" viewBox="0 0 20 20">
  <rect width="100%" height="100%" fill="#2D4C91"/>
  <path fill="#425D9C" d="M0 20V0l20 20H0Z"/>
  <path fill="#fff" d="M10.5 5.04 6.87 15h-1.3L2 5.04h1.3l2.74 7.9c.08.28.15.6.2.87h.03c.04-.31.12-.59.24-.9L9.29 5l1.22.04ZM11.93 15V5.04h2.82c.75-.04 1.45.2 2.04.63.51.4.78 1.03.75 1.66a2.5 2.5 0 0 1-.48 1.46c-.3.44-.74.76-1.25.87v.04c.59.04 1.18.32 1.6.75.4.48.64 1.07.6 1.66.04.8-.32 1.55-.9 2.06-.63.55-1.46.83-2.28.79h-2.9V15Zm1.18-8.9v3.2h1.17c.55.05 1.06-.15 1.5-.47.34-.31.58-.79.54-1.3 0-.95-.63-1.46-1.88-1.46l-1.33.04Zm0 4.24v3.6h1.56c.55.03 1.14-.17 1.57-.48.4-.32.59-.83.55-1.35 0-1.18-.78-1.77-2.4-1.77H13.1Z"/>
</svg>
